X:417
T:Pap of Glencoe, The 
C:Joe Buchanan's Scottish Tome - Page 380.0
I:380 0
C:Wm. Lawrie
R:March
Z:Carl Allison
L:1/8
M:2/4
K:C
e | AA/>c/ ec/>d/ | e/<a/d/>f/ e/>A/c/<e/ | d/>G/B/<G/ dB/>c/ | d/>G/f/>e/ e/>d/c/>B/ |
AA/>B/ ec/>d/ | e/<a/d/>f/ c/<e/A/>c/ | B/<d/G/B/ ee/>d/ | cA A :|
c/>d/ | e/>A/c/<A/ ag/>f/ | e/>A/c/>d/ eB/>c/ | d/>G/B/<G/ dB/>c/ | d/>G/f/>e/ e/>d/c/>d/ |
e/>A/c/<A/ ag/>f/ | e/<a/d/>f/ c/<e/A/>c/ | B/<d/G/B/ ee/>d/ | cA A :|
e | Ac/>A/ ec/>d/ | e/<a/d/>f/ e/c/e/ | d/>G/B/>G/ dB/>d/ | e/>A/c/>e/ d/>G/B/<G/ |
Ac/>A/ ec/>d/ | e/<a/d/>f/ c/<e/A/>c/ | B/<d/G/B/ ee/>d/ | cA A :|
c//d/ | e/>A/c/<e/ a/>e/c/<e/ | f/<a/d/>f/ e/>A/c/<e/ | d/>G/B/<d/ g/>d/B/<d/ | e/>A/c/<e/ d/>G/B/<d/ |
e/>A/c/<e/ a/>e/c/<e/ | f/<a/d/>f/ c/<e/A/>c/ | B/<d/G/B/ ee/>d/ | cA Ac/>d/ |
e/>A/c/<e/ a/>e/c/<e/ | f/<a/d/>f/ e/>A/c/<e/ | d/>G/B/<d/ g/>d/B/<d/ | e/>A/c/<e/ d/>G/B/<d/ |
e/<A/A ag/>f/ | e/<a/d/>f/ c/<e/A/>c/ | B/<d/G/B/ ee/>d/ | cA A |]

